X: 2
T: Mother Dobney's Trenchers
T: Longways for as many as will.
%R: jig
B: Daniel Wright "Wright's Compleat Collection of Celebrated Country Dances" 1740 p.1
S: http://library.efdss.org/cgi-bin/dancebooks.cgi
Z: 2014 John Chambers <jc:trillian.mit.edu>
N: The 2nd strain has initial repeat but no final repeat.
M: 6/4
L: 1/4
K: F
% - - - - - - - - - - - - - - - - - - - - - - - - -
|:\
(DF)A (^CD)E | (B,^C)D (EC)A, |\
(DF)A (^CD)E | (A,B,)^C D3 :|\
|:\
(fe)d afd | (ge)c gab |
efg efd | (^cd)e A3 |\
F2E (FA)f | e2d (^ce)a |\
(AG)F (EF)D | EA,^C D3 |]
% - - - - - - - - - - - - - - - - - - - - - - - - -
%%begintext align
%% The 1st and 2d Cu. Hands all four a cross &
%% Jump quite round .|. Then Hands a cross all 4
%% back again & turn single :| The 1st Cu. cross
%% over & half Figure at top, & turn Partners .|
%% then Right & Left quite round, & turn your
%% Partner twice round.
%%endtext
% - - - - - - - - - - - - - - - - - - - - - - - - -
%%sep 2 4 300
